src/assets/kursor.svg

<?xml version="1.0" encoding="utf-8"?>
<!-- Generator: Adobe Illustrator 16.0.0, SVG Export Plug-In . SVG Version: 6.00 Build 0)  -->
<!DOCTYPE svg PUBLIC "-//W3C//DTD SVG 1.1//EN" "http://www.w3.org/Graphics/SVG/1.1/DTD/svg11.dtd">
<svg version="1.1" id="Layer_1" xmlns="http://www.w3.org/2000/svg" xmlns:xlink="http://www.w3.org/1999/xlink" x="0px" y="0px"
	 width="299.583px" height="387.963px" viewBox="0 0 299.583 387.963" enable-background="new 0 0 299.583 387.963"
	 xml:space="preserve">
<g id="Layer_1_1_">
	<g>
		<defs>
			<rect id="SVGID_1_" width="299.583" height="387.963"/>
		</defs>
		<clipPath id="SVGID_2_">
			<use xlink:href="#SVGID_1_"  overflow="visible"/>
		</clipPath>
		<g clip-path="url(#SVGID_2_)">
			<path fill="#AB8048" stroke="#AB8048" stroke-width="4" stroke-miterlimit="10" d="M267.433,277.877
				c-7.7,27.909-15.578,55.771-23.214,83.697c-0.922,3.375-2.411,4.296-5.838,4.284c-39.486-0.127-78.971-0.127-118.458,0.018
				c-3.478,0.014-4.848-1.133-5.952-4.299c-3.995-11.471-7.972-22.973-12.687-34.154c-2.559-6.068-6.439-11.613-9.991-17.224
				c-21.373-33.765-42.838-67.47-64.238-101.218c-6.3-9.934-5.466-21.042,2.042-28.973c7.367-7.782,19.041-9.712,28.337-4.089
				c3.144,1.901,5.983,4.854,8.019,7.946c10.708,16.273,21.111,32.742,31.626,49.142c1.072,1.673,2.182,3.319,3.274,4.978
				c0.354-0.086,0.708-0.172,1.061-0.258v-15.328c0-60.312-0.006-120.624,0.007-180.937c0.002-9.338,4.146-15.815,11.669-18.429
				c10.821-3.759,22.196,4.659,23.234,17.245c0.163,1.987,0.073,3.996,0.073,5.995c-0.001,43.485-0.007,86.97-0.01,130.455
				c-0.001,1.806,0,3.611,0,5.785h22.173v-5.396c0.001-20.659,0.105-41.32-0.098-61.977c-0.034-3.578,1.355-5.552,4.158-7.162
				c11.607-6.67,25.875,1.352,26.012,15.021c0.258,25.322,0.115,50.647,0.14,75.972c0.002,1.946,0.001,3.894,0.001,6.168h22.305
				v-75.929c10.644-2.875,20.469,5.115,20.584,16.581c0.182,17.826,0.072,35.654,0.072,53.48c0,7.16,0.012,14.318-0.074,21.477
				c-0.041,3.195,0.734,4.907,4.568,4.523c4.275-0.429,8.665-0.422,12.941,0.019c4.17,0.431,5.086-1.224,5.065-5.001
				c-0.114-21.325-0.043-42.651-0.034-63.977v-5.769c12.108-4.188,22.961,4.977,23.077,19.268
				c0.142,17.659-0.931,35.378,0.214,52.962C278.756,242.206,272.413,259.828,267.433,277.877 M299.483,170.707
				c-0.018-3.63-0.422-7.333-1.213-10.876c-5.109-22.856-21.752-34.785-44.893-32.107c-2.977,0.345-4.014-0.972-5.396-3.074
				c-8.725-13.267-21.246-19.283-36.956-18.326c-3.014,0.184-4.055-0.948-5.341-3.078c-6.184-10.234-15.115-17.02-26.923-18.864
				c-6.427-1.003-13.14-0.179-20.2-0.179c0-1.371,0.001-3.176,0-4.982c-0.007-13.165,0.232-26.335-0.073-39.493
				C157.9,14.487,134.671-4.209,110.48,0.822C91.99,4.668,79.267,20.466,79.221,40.076c-0.094,39.328-0.03,78.656-0.031,117.984
				v6.137c-1.528-1.127-2.299-1.632-2.997-2.222c-22.586-19.101-55.515-13.688-69.979,12.023
				c-7.329,13.026-8.924,26.992-0.701,40.394c19.854,32.362,40.079,64.496,60.035,96.797c5.76,9.324,12.038,18.492,16.428,28.457
				c6.227,14.138,11.078,28.896,16.166,43.51c1.25,3.589,2.796,4.808,6.612,4.798c50.159-0.134,100.321-0.144,150.48,0.01
				c3.79,0.013,5.125-1.315,6.06-4.678c11.891-42.823,23.92-85.606,35.83-128.425c1.105-3.975,2.281-8.105,2.317-12.172
				C299.655,218.696,299.59,194.701,299.483,170.707"/>
			<path fill="#AB8048" stroke="#AB8048" stroke-width="4" stroke-miterlimit="10" d="M215.874,259.481
				c6.676-6.948,4.055-17.713-5.092-19.406c-3.621-0.672-8.824,1.305-11.734,3.863c-8.063,7.088-15.301,15.117-23.356,23.271
				c-7.959-8.158-15.155-15.659-22.493-23.021c-6.259-6.278-12.365-6.588-17.753-1.131c-4.9,4.963-4.519,11.577,1.283,17.375
				c7.508,7.5,15.179,14.84,23.551,23c-4.437,4.06-8.42,7.571-12.25,11.238c-3.989,3.82-7.887,7.737-11.728,11.705
				c-4.949,5.114-5.558,11.197-1.741,15.992c4.78,6.001,11.835,6.5,17.698,0.721c7.81-7.695,15.271-15.745,23.394-24.172
				c8.086,8.26,15.16,15.564,22.319,22.783c6.58,6.634,12.854,7.168,18.236,1.691c5.004-5.088,4.477-11.722-1.656-17.865
				c-7.344-7.359-14.824-14.58-22.709-22.315C200.191,275.001,208.232,267.433,215.874,259.481"/>
		</g>
	</g>
</g>
</svg>

<?xml version="1.0" encoding="UTF-8"?>
<!DOCTYPE svg PUBLIC "-//W3C//DTD SVG 1.1//EN" "http://www.w3.org/Graphics/SVG/1.1/DTD/svg11.dtd">
<svg version="1.1" xmlns="http://www.w3.org/2000/svg" xmlns:xlink="http://www.w3.org/1999/xlink" x="0" y="0" width="299.583" height="387.963" viewBox="0, 0, 299.583, 387.963">
  <defs>
    <clipPath id="Clip_1">
      <path d="M-0,-0 L299.583,-0 L299.583,387.963 L-0,387.963 z"/>
    </clipPath>
  </defs>
  <g id="Layer_1">
    <g clip-path="url(#Clip_1)">
      <path d="M267.433,277.877 C259.733,305.786 251.855,333.647 244.219,361.574 C243.297,364.949 241.808,365.87 238.381,365.858 C198.895,365.731 159.41,365.731 119.924,365.876 C116.446,365.889 115.076,364.743 113.972,361.577 C109.977,350.106 106,338.604 101.285,327.423 C98.726,321.355 94.846,315.81 91.294,310.199 C69.921,276.435 48.456,242.73 27.056,208.982 C20.756,199.048 21.59,187.939 29.098,180.009 C36.465,172.227 48.139,170.297 57.435,175.92 C60.579,177.821 63.418,180.774 65.454,183.866 C76.162,200.139 86.565,216.609 97.08,233.008 C98.152,234.68 99.262,236.327 100.354,237.985 C100.708,237.899 101.062,237.813 101.415,237.727 L101.415,222.399 C101.415,162.088 101.409,101.776 101.422,41.463 C101.424,32.125 105.568,25.648 113.091,23.034 C123.912,19.275 135.287,27.693 136.325,40.279 C136.488,42.266 136.398,44.275 136.398,46.274 C136.397,89.759 136.391,133.244 136.388,176.729 C136.387,178.535 136.388,180.34 136.388,182.514 L158.561,182.514 L158.561,177.118 C158.562,156.459 158.666,135.798 158.464,115.141 C158.429,111.563 159.819,109.589 162.621,107.979 C174.229,101.309 188.496,109.331 188.634,123 C188.891,148.322 188.749,173.647 188.773,198.972 C188.775,200.918 188.774,202.865 188.774,205.139 L211.079,205.139 L211.079,129.211 C221.722,126.336 231.547,134.326 231.663,145.792 C231.844,163.618 231.735,181.446 231.735,199.273 C231.735,206.432 231.746,213.591 231.66,220.749 C231.62,223.945 232.395,225.656 236.229,225.273 C240.505,224.844 244.894,224.851 249.17,225.291 C253.341,225.721 254.256,224.068 254.236,220.29 C254.121,198.965 254.193,177.639 254.202,156.313 L254.202,150.544 C266.31,146.356 277.163,155.521 277.279,169.812 C277.421,187.471 276.348,205.191 277.492,222.774 C278.756,242.206 272.413,259.828 267.433,277.877 M299.483,170.707 C299.466,167.077 299.061,163.374 298.27,159.831 C293.16,136.975 276.518,125.046 253.378,127.724 C250.401,128.069 249.364,126.752 247.981,124.65 C239.256,111.383 226.735,105.367 211.025,106.324 C208.011,106.508 206.97,105.376 205.684,103.246 C199.501,93.012 190.569,86.226 178.761,84.382 C172.334,83.379 165.621,84.203 158.561,84.203 C158.561,82.832 158.562,81.027 158.561,79.221 C158.554,66.056 158.794,52.886 158.488,39.728 C157.9,14.487 134.671,-4.209 110.48,0.822 C91.99,4.668 79.267,20.466 79.221,40.076 C79.127,79.404 79.191,118.732 79.19,158.06 L79.19,164.197 C77.662,163.07 76.891,162.565 76.193,161.975 C53.607,142.874 20.678,148.287 6.214,173.998 C-1.115,187.024 -2.71,200.99 5.513,214.392 C25.367,246.754 45.592,278.888 65.548,311.188 C71.308,320.512 77.586,329.68 81.976,339.646 C88.203,353.783 93.054,368.541 98.142,383.155 C99.392,386.744 100.938,387.963 104.754,387.953 C154.913,387.819 205.074,387.809 255.234,387.963 C259.024,387.975 260.359,386.648 261.293,383.285 C273.184,340.462 285.214,297.679 297.123,254.86 C298.229,250.886 299.405,246.755 299.441,242.689 C299.655,218.696 299.591,194.701 299.483,170.707" fill="#AB8048"/>
      <path d="M215.874,259.481 C222.549,252.533 219.928,241.769 210.782,240.075 C207.161,239.404 201.958,241.38 199.048,243.938 C190.984,251.027 183.747,259.055 175.691,267.21 C167.732,259.052 160.536,251.551 153.198,244.188 C146.939,237.91 140.833,237.601 135.445,243.057 C130.545,248.021 130.926,254.635 136.728,260.432 C144.236,267.933 151.907,275.273 160.279,283.433 C155.842,287.492 151.859,291.004 148.029,294.671 C144.04,298.491 140.142,302.408 136.301,306.376 C131.352,311.49 130.743,317.573 134.56,322.368 C139.34,328.369 146.395,328.868 152.258,323.089 C160.068,315.393 167.529,307.344 175.652,298.917 C183.738,307.177 190.812,314.481 197.971,321.7 C204.551,328.334 210.825,328.868 216.208,323.391 C221.212,318.303 220.684,311.67 214.551,305.526 C207.208,298.167 199.727,290.946 191.842,283.211 C200.191,275.001 208.232,267.433 215.874,259.481" fill="#AB8048"/>
    </g>
  </g>
</svg>
